X:1
T:I Used to Work in Chicago
M:6/8
L:1/8
K:C
z4 z G |\
E2 E E^DE | F3 E3 | D^CD E2 D | A,3- A, z D | D2 D D^CD | E3 D2 D |\
CDC CB,A, | G,3- G,2 E | E^DE C2 E | E^DE C2 C | D^CD DED | A,3- A,2 z |\
GGG G2 G | GGG G2 G | G-A G FED | C3- C2 z |]
